libs/icons/src/svg/lock.svg

<svg width="16" height="16" viewBox="0 0 16 16" fill="none" xmlns="http://www.w3.org/2000/svg">
<path fill-rule="evenodd" clip-rule="evenodd" d="M6.00004 11.3333C6.00004 10.2 6.86671 9.33333 8.00004 9.33333C9.13337 9.33333 10 10.2 10 11.3333C10 12.4667 9.13337 13.3333 8.00004 13.3333C6.86671 13.3333 6.00004 12.4667 6.00004 11.3333ZM8.00004 10.6667C7.60004 10.6667 7.33337 10.9333 7.33337 11.3333C7.33337 11.7333 7.60004 12 8.00004 12C8.40004 12 8.66671 11.7333 8.66671 11.3333C8.66671 10.9333 8.40004 10.6667 8.00004 10.6667Z" fill="#202327"/>
<path fill-rule="evenodd" clip-rule="evenodd" d="M8.06671 0H8.00004C6.93337 0 5.93337 0.4 5.20004 1.13333C4.46671 1.86667 4.00004 2.86667 4.00004 3.93333V6.66667H2.00004C1.60004 6.66667 1.33337 6.93333 1.33337 7.33333V15.3333C1.33337 15.7333 1.60004 16 2.00004 16H14C14.4 16 14.6667 15.7333 14.6667 15.3333V7.33333C14.6667 6.93333 14.4 6.66667 14 6.66667H12V4C12 2.93333 11.6 1.93333 10.8667 1.2C10.1334 0.466667 9.13337 0 8.06671 0ZM2.66671 8V14.6667H13.3334V8H2.66671ZM5.33337 6.66667H10.6667V4C10.6667 3.33333 10.4 2.6 9.93337 2.13333C9.40004 1.6 8.73337 1.33333 8.06671 1.33333H8.00004C7.33337 1.33333 6.60004 1.6 6.13337 2.06667C5.60004 2.6 5.33337 3.26667 5.33337 3.93333V6.66667Z" fill="#202327"/>
</svg>

<svg xmlns="http://www.w3.org/2000/svg" viewBox="0 0 16 16" class="sageicon"><path fill-rule="evenodd" d="M6 11.333c0-1.133.867-2 2-2s2 .867 2 2c0 1.134-.867 2-2 2s-2-.866-2-2Zm2-.666c-.4 0-.667.266-.667.666S7.6 12 8 12s.667-.267.667-.667-.267-.666-.667-.666Z"/><path fill-rule="evenodd" d="M8.067 0H8C6.933 0 5.933.4 5.2 1.133c-.733.734-1.2 1.734-1.2 2.8v2.734H2c-.4 0-.667.266-.667.666v8c0 .4.267.667.667.667h12c.4 0 .667-.267.667-.667v-8c0-.4-.267-.666-.667-.666h-2V4c0-1.067-.4-2.067-1.133-2.8C10.133.467 9.133 0 8.067 0Zm-5.4 8v6.667h10.666V8H2.667Zm2.666-1.333h5.334V4c0-.667-.267-1.4-.734-1.867-.533-.533-1.2-.8-1.866-.8H8c-.667 0-1.4.267-1.867.734-.533.533-.8 1.2-.8 1.866v2.734Z"/></svg>
